X:190
T: Matt Daly's
S: "Johnny O'Leary of Sliabh Luachra" (#291)
Z: B.Black
L: 1/8
M: 12/8
Q: 380
R: slide
K: A
A2F E2F A2B c2c|BAB cBA B/c/BA F2B|
A2F E2F A2B c/d/cd|1 e2c BcB A3 A2B :|
|2 e2c BcB A3 A3||
a3 a2e f2g a2f|e2c BAB c2A F3|
a3 a2e f2g a2f|e2c BcB A3 A3|
a3 a2e f2g a2f|e2c BAB c2A F2B|
A2F E2F A2B cBc|ezc BcB A3 A2B||
